icons/g.svg

<?xml version="1.0" encoding="UTF-8" standalone="no"?>
<svg width="37px" height="34px" viewBox="0 0 37 34" version="1.1" xmlns="http://www.w3.org/2000/svg" xmlns:xlink="http://www.w3.org/1999/xlink" xmlns:sketch="http://www.bohemiancoding.com/sketch/ns">
    <!-- Generator: Sketch 3.2.2 (9983) - http://www.bohemiancoding.com/sketch -->
    <title>github</title>
    <desc>Created with Sketch.</desc>
    <defs>
        <filter x="-50%" y="-50%" width="200%" height="200%" filterUnits="objectBoundingBox" id="filter-1">
            <feOffset dx="0" dy="0" in="SourceAlpha" result="shadowOffsetOuter1"></feOffset>
            <feGaussianBlur stdDeviation="3" in="shadowOffsetOuter1" result="shadowBlurOuter1"></feGaussianBlur>
            <feColorMatrix values="0 0 0 0 0.627577594   0 0 0 0 0.627577594   0 0 0 0 0.627577594  0 0 0 0.326024683 0" in="shadowBlurOuter1" type="matrix" result="shadowMatrixOuter1"></feColorMatrix>
            <feMerge>
                <feMergeNode in="shadowMatrixOuter1"></feMergeNode>
                <feMergeNode in="SourceGraphic"></feMergeNode>
            </feMerge>
        </filter>
    </defs>
    <g id="Page-1" stroke="none" stroke-width="1" fill="none" fill-rule="evenodd" sketch:type="MSPage">
        <g id="Group" sketch:type="MSLayerGroup" transform="translate(-128.000000, -27.000000)" fill-opacity="0.789855072" filter="url(#filter-1)" fill="#FFFFFF">
            <path d="M161.881324,43.6955436 C161.884334,43.6985737 161.893363,43.6985737 161.899382,43.6985737 C161.946032,43.6985737 161.988167,43.6637277 161.9987,43.6152462 C162.007729,43.5591895 161.968604,43.509193 161.915935,43.4955576 C160.549561,43.2440599 158.567717,42.9637764 155.199935,42.9910473 C155.409105,42.2092836 155.523471,41.2835905 155.544539,40.1882123 C155.541529,37.2172072 154.128505,36.1672804 153.857638,35.6733754 C154.25792,33.4250473 153.789921,32.4008762 153.573228,32.0493856 C152.77417,31.7630419 150.789316,32.7841828 149.705847,33.5083748 C147.936182,32.9856839 144.204235,33.0387106 142.801745,33.6416988 C140.217974,31.7797074 138.851599,32.064536 138.851599,32.064536 C138.851599,32.064536 137.966767,33.6583643 138.619858,35.9915351 C137.768131,37.0853982 137.136108,37.8550416 137.136108,39.9018686 C137.136108,41.0563336 137.271541,42.0865648 137.57401,42.9880172 C136.222684,42.9849871 132.403457,43.1683076 131.076208,43.4970726 C131.02354,43.5122231 130.990434,43.5667647 131.002472,43.6213064 C131.014511,43.6667577 131.055141,43.6985737 131.10179,43.6985737 C131.107809,43.6985737 131.116838,43.6985737 131.125867,43.6940286 C132.466659,43.3607185 136.37768,43.178913 137.644736,43.1895183 C137.718472,43.3849592 137.801237,43.5713099 137.891526,43.7531154 C134.626072,43.840988 132.763108,44.3106523 131.393725,44.6575978 C131.294407,44.6818385 131.193584,44.7045642 131.103295,44.7288049 C131.050626,44.7424404 131.014511,44.7984971 131.029559,44.8515237 C131.041597,44.8984901 131.079218,44.928791 131.125867,44.928791 C131.131886,44.928791 131.140915,44.927276 131.149944,44.9257609 C131.243243,44.9015202 131.344066,44.8772794 131.440374,44.8515237 C132.815777,44.5045781 134.690779,44.0333989 137.993854,43.9531014 C138.955432,45.7105547 140.803348,46.8135081 143.910795,47.1301527 C143.940892,47.1331828 143.969483,47.1362129 143.99657,47.139243 C143.54663,47.4831584 143.003391,48.1361432 142.929655,48.8936662 C142.362338,49.2633374 141.224696,49.3845411 140.336854,49.1042576 C139.096885,48.7088306 138.619858,46.2332455 136.759903,46.5847362 C136.356612,46.6635186 136.436368,46.9301667 136.78699,47.1559085 C137.351297,47.5255797 137.885507,47.9891838 138.297827,48.9709335 C138.612334,49.7269415 139.278968,51.0753323 141.381197,51.0753323 C142.213361,51.0753323 142.797231,50.9753393 142.797231,50.9753393 C142.797231,50.9753393 142.812279,52.9024777 142.812279,53.6539405 C142.812279,54.5175167 141.653569,54.759924 141.653569,55.1765617 C141.653569,55.3417017 142.038803,55.3568521 142.34729,55.3568521 C142.955236,55.3568521 144.222293,54.8462817 144.222293,53.9463444 C144.222293,53.2327577 144.234331,50.832925 144.234331,50.4147723 C144.234331,49.4966545 144.721892,49.2057657 144.721892,49.2057657 C144.721892,49.2057657 144.78359,54.1039092 144.604516,54.759924 C144.395347,55.5341125 144.022152,55.4235142 144.022152,55.7659145 C144.022152,56.2810302 145.548037,55.8931784 146.053655,54.7690143 C146.444908,53.8948328 146.273359,49.0875921 146.273359,49.0875921 L146.687184,49.0785018 C146.687184,49.0785018 146.711261,51.2798635 146.696212,52.285854 C146.684174,53.3251755 146.613447,54.6432655 147.228918,55.2629193 C147.629199,55.6734967 148.942905,56.3901135 148.942905,55.7356136 C148.942905,55.3553371 148.220592,55.0417226 148.220592,54.0114913 L148.220592,49.2709126 C148.796937,49.2709126 148.711163,50.8298949 148.711163,50.8298949 L148.751793,53.7236326 C148.751793,53.7236326 148.625388,54.7781046 149.886425,55.222013 C150.330346,55.3780628 151.279886,55.418969 151.326535,55.1568661 C151.370175,54.8947631 150.179865,54.5008512 150.167826,53.6842414 C150.161807,53.1873064 150.191903,52.8949025 150.191903,50.7314169 C150.191903,48.5679313 149.904483,47.766472 148.896255,47.1271226 C149.234839,47.0922766 149.55988,47.0498553 149.871377,47.0044039 L149.871377,47.0028889 C152.411509,46.6210973 154.024673,45.8044876 154.858342,43.9591616 C155.937296,43.9955227 159.172653,44.1076361 161.791035,44.9136405 C161.803074,44.9166706 161.812103,44.9166706 161.822637,44.9166706 C161.863267,44.9166706 161.902392,44.8878848 161.915935,44.8454635 C161.930983,44.7924369 161.900887,44.7363802 161.848219,44.7197147 C159.267457,43.9258306 156.096807,43.8015968 154.941107,43.7637207 C155.014843,43.5804001 155.08256,43.3940495 155.141247,43.1955785 C158.533106,43.1622475 160.513446,43.4425309 161.881324,43.6955436 L161.881324,43.6955436 Z" id="github" sketch:type="MSShapeGroup"></path>
        </g>
    </g>
</svg>

<svg width="37" height="34" viewBox="0 0 37 34" xmlns="http://www.w3.org/2000/svg"><title>github</title><desc>Created with Sketch.</desc><defs><filter x="-50%" y="-50%" width="200%" height="200%" filterUnits="objectBoundingBox" id="a"><feOffset in="SourceAlpha" result="shadowOffsetOuter1"/><feGaussianBlur stdDeviation="3" in="shadowOffsetOuter1" result="shadowBlurOuter1"/><feColorMatrix values="0 0 0 0 0.627577594 0 0 0 0 0.627577594 0 0 0 0 0.627577594 0 0 0 0.326024683 0" in="shadowBlurOuter1" result="shadowMatrixOuter1"/><feMerge><feMergeNode in="shadowMatrixOuter1"/><feMergeNode in="SourceGraphic"/></feMerge></filter></defs><g fill="none" fill-rule="evenodd"><g transform="translate(-128 -27)" fill-opacity=".79" filter="url(#a)" fill="#fff"><path d="M161.88 43.696c.004.003.013.003.02.003.046 0 .088-.036.1-.085.008-.056-.03-.106-.084-.12-1.366-.25-3.348-.53-6.716-.504.21-.78.323-1.706.345-2.802-.003-2.97-1.416-4.02-1.687-4.515.4-2.248-.068-3.272-.285-3.624-.8-.287-2.784.734-3.867 1.458-1.77-.522-5.502-.47-6.904.134-2.584-1.862-3.95-1.577-3.95-1.577s-.885 1.593-.232 3.927c-.852 1.093-1.484 1.863-1.484 3.91 0 1.154.136 2.185.438 3.086-1.35-.003-5.17.18-6.498.51-.052.014-.086.07-.074.123.013.047.053.08.1.08.006 0 .015 0 .024-.006 1.34-.333 5.252-.515 6.52-.504.072.195.155.38.246.563-3.266.088-5.13.558-6.498.905-.1.024-.2.047-.29.07-.053.014-.09.07-.074.124.012.046.05.077.096.077l.024-.004.29-.074c1.376-.347 3.25-.82 6.554-.9.96 1.76 2.81 2.862 5.917 3.178l.087.01c-.45.343-.994.996-1.067 1.754-.568.37-1.705.49-2.593.21-1.24-.395-1.717-2.87-3.577-2.52-.403.08-.324.346.027.572.564.37 1.1.833 1.51 1.815.315.757.982 2.105 3.084 2.105.833 0 1.417-.1 1.417-.1s.015 1.927.015 2.68c0 .863-1.158 1.105-1.158 1.522 0 .165.385.18.693.18.608 0 1.875-.51 1.875-1.41 0-.714.012-3.114.012-3.532 0-.918.488-1.21.488-1.21s.062 4.9-.117 5.555c-.21.774-.583.664-.583 1.006 0 .515 1.526.127 2.032-.997.39-.875.22-5.682.22-5.682l.413-.01s.024 2.202.01 3.208c-.013 1.04-.084 2.357.532 2.977.4.41 1.713 1.127 1.713.473 0-.38-.722-.694-.722-1.725v-4.74c.577 0 .49 1.56.49 1.56l.042 2.894s-.127 1.054 1.134 1.498c.444.156 1.394.197 1.44-.065.044-.262-1.146-.656-1.158-1.473-.006-.497.024-.79.024-2.953 0-2.162-.288-2.964-1.296-3.603.34-.035.664-.077.975-.123 2.542-.383 4.155-1.2 4.988-3.045 1.08.036 4.315.148 6.933.954.013.003.022.003.033.003.04 0 .08-.03.093-.072.015-.053-.015-.11-.068-.125-2.58-.794-5.75-.918-6.907-.956.075-.184.143-.37.2-.568 3.393-.034 5.373.247 6.74.5z"/></g></g></svg>
